src/icons/outline/users/user.svg

<svg width="24" height="24" viewBox="0 0 24 24" fill="none" xmlns="http://www.w3.org/2000/svg">
<g clip-path="url(#clip0_4549_470)">
<path fill-rule="evenodd" clip-rule="evenodd" d="M15.9004 11.7441C15.9676 11.753 16.0349 11.7651 16.0996 11.7803C19.4896 12.688 22 15.8401 22 19.6035C21.9999 20.9292 20.95 21.9999 19.6602 22H4.33984C3.04999 21.9999 2.00013 20.9292 2 19.6035C2 15.8503 4.50039 12.688 7.90039 11.7803C8.03019 11.7498 8.17002 11.7295 8.2998 11.7295C8.5698 11.7295 8.83031 11.801 9.07031 11.9336C9.94027 12.4231 10.9401 12.6982 12 12.6982C13.0599 12.6982 14.0597 12.4231 14.9297 11.9336C15.1697 11.801 15.4302 11.7295 15.7002 11.7295L15.9004 11.7441ZM8.28027 13.2598C5.47027 14.0145 3.5 16.6254 3.5 19.6035C3.50013 20.0827 3.87999 20.4696 4.33984 20.4697H19.6504C20.1101 20.4695 20.4901 20.0826 20.4902 19.6035C20.4902 16.7185 18.6505 14.178 15.9717 13.3359L15.71 13.2598H15.7002C15.6886 13.2598 15.6767 13.2627 15.667 13.2656C15.6603 13.2676 15.6545 13.2694 15.6504 13.2695C14.5404 13.8917 13.27 14.2188 12 14.2188C10.73 14.2188 9.45961 13.8917 8.34961 13.2695L8.2998 13.2598H8.28027Z" fill="#3C3B44"/>
<path fill-rule="evenodd" clip-rule="evenodd" d="M12 2C14.5115 2 16.5459 4.0397 16.5459 6.5459C16.5457 9.05189 14.5113 11.0908 12 11.0908C9.48871 11.0908 7.45532 9.05187 7.45508 6.5459C7.45508 4.03972 9.48856 2.00002 12 2ZM12 3.42969C10.2812 3.42971 8.88672 4.83065 8.88672 6.5459C8.88696 8.26095 10.2813 9.66111 12 9.66113C13.7187 9.66113 15.113 8.26096 15.1133 6.5459C15.1133 4.83063 13.7189 3.42969 12 3.42969Z" fill="#3C3B44"/>
</g>
<defs>
<clipPath id="clip0_4549_470">
<rect width="24" height="24" fill="white"/>
</clipPath>
</defs>
</svg>

<svg xmlns="http://www.w3.org/2000/svg" width="24" height="24" fill="none" viewBox="0 0 24 24"><g fill="currentColor" fill-rule="evenodd" clip-path="url(#a)" clip-rule="evenodd"><path d="M15.9 11.744q.102.014.2.036c3.39.908 5.9 4.06 5.9 7.824C22 20.929 20.95 22 19.66 22H4.34C3.05 22 2 20.93 2 19.604c0-3.754 2.5-6.916 5.9-7.824a1.58 1.58 0 0 1 1.17.153c.87.49 1.87.765 2.93.765s2.06-.275 2.93-.764c.24-.133.5-.204.77-.204zM8.28 13.26c-2.81.755-4.78 3.365-4.78 6.344 0 .479.38.866.84.866h15.31c.46 0 .84-.387.84-.866 0-2.886-1.84-5.426-4.518-6.268l-.262-.076h-.01a.1.1 0 0 0-.033.006l-.017.004a7.5 7.5 0 0 1-7.3 0l-.05-.01zM12 2a4.55 4.55 0 0 1 4.546 4.546A4.55 4.55 0 0 1 12 11.09a4.547 4.547 0 0 1-4.545-4.545A4.547 4.547 0 0 1 12 2m0 1.43a3.12 3.12 0 0 0-3.113 3.116A3.12 3.12 0 0 0 12 9.66c1.719 0 3.113-1.4 3.113-3.115A3.12 3.12 0 0 0 12 3.43"/></g><defs><clipPath id="a"><path fill="currentColor" d="M0 0h24v24H0z"/></clipPath></defs></svg>
